X:1
T:Christmas Medley
M:C
L:1/8
Q:80
C:Arr. Scott McClellan
S:Section 1
K:HP
[| {g}Af{g}ed{g}A3{GAG}A|
{g}Af{g}ed{gBd}B4|
{g}Bg{a}fe{gcd}c4|  !
a{g}age{gfg}f4|
{g}Af{g}ed{g}A3{GAG}A|
{g}Af{g}ed{gBd}B4|  !
{g}Bg{a}fea{g}a{g}af|
{gf}g{a}g{a}fe{Gdc}d2e2| |:
{g}c{e}c{G}c2{g}c{e}c{G}c2|  !
{g}ce{g}A3/2B/2{GdG}c4|
{Gdc}d{e}d{c}d3/2{g}d/2{c}dc{g}c{G}c|1
{gcd}cB{G}Bc{gBd}B2e2:| |  !
|2 {g}e{A}e{Gdc}d{e}B{G}A4|] [|
{Gdc}d{e}d{G}de{Gdc}d{e}d{e}A2|
{g}B{G}A{g}Bc{Gdc}d2{gdG}d2|  !
{Gdc}d{e}d{G}de{Gdc}d{e}d{e}A2|
{g}B{G}A{g}Bc{Gdc}d2{gdG}d2|
{ag}ag{a}fe{g}fe{Gdc}d2|  !
{g}B{G}A{g}Bc{Gdc}d2{gdG}d2|
{g}A{d}A{g}Bc{Gdc}d{c}d{gef}e2|
ag{a}fe{Gdc}d2g2{Gdc}d4|] [|  !
M:6/8 {g}f2e{Gdc}d2B|
{g}cdc{gBd}B3|
{g}f2e{Gdc}d2B|  !
{g}cdc{gBd}B3|
{Gdc}d2{c}d{gef}e2{A}e|
{gfg}f2{e}f{ag}ag{a}f|  !
{g}efe{Gdc}d2c|
{gBd}B6|
{gcd}c3{gef}e3|  !
{Gdc}d2{g}d{G}d2{e}A|
{Gdc}d2{e}B{Gdc}d3|
{Gdc}d2{g}d{G}d2{e}A|  !
{Gdc}d2{e}B{Gdc}d3|
{Gdc}d2{g}d{gef}e2f|
{a}g2f{gef}e2f|  !
{Gdc}d2{g}d{G}d2{e}A|
{Gdc}d2{e}B{Gdc}d3| [|
M:C d|  !
{g}d2{e}Ad{gef}e2{g}A2|
{gfg}fe{g}fg{a}f2{g}ed|
{g}d2{gcd}cB{g}cd{g}ef|  !
{GdG}c2{gBd}B3/2A/2{GAG}A4|
{ag}a2g{a}f{gf}g2{a}f2|
{g}ef{Gdc}de{gcd}c3/2B/2{G}Ad|  !
{gde}dc{Gdc}de{Gdc}d2{e}Af|
{gfg}fe{g}fg{a}f2{g}ef|
{a}gf{g}ed{gcd}c2{Gdc}dg|  !
{a}f2{gef}e3/2d/2{gdG}d4|]
M:6/8 a|:
{g}a3/2g/2{a}f{gfg}fe{Gdc}d|  !
{gde}dcB{G}A2{g}A|1
{GAG}A3/2B/2{G}A{g}Aec|
{gBd}B{G}A{Gdc}d{gfg}f2a:| |  !
|2 {gf}g3/2f/2e{g}fed|
{g}eBc{Gdc}d3|]

